images/icons/sun.svg

<svg width="52" height="52" viewBox="0 0 52 52" fill="none" xmlns="http://www.w3.org/2000/svg">
<g clip-path="url(#clip0)">
<path d="M29.4792 32.9161C29.4792 37.6994 33.3569 41.577 38.1401 41.577C42.923 41.577 46.8006 37.6994 46.8006 32.9161C46.8006 28.1332 42.923 24.2556 38.1401 24.2556C33.359 24.2609 29.4845 28.1353 29.4792 32.9161ZM38.1401 25.9876C41.9667 25.9876 45.0687 29.0895 45.0687 32.9161C45.0687 36.7427 41.9667 39.8447 38.1401 39.8447C34.3135 39.8447 31.2116 36.7427 31.2116 32.9161C31.2158 29.0916 34.3153 25.9918 38.1401 25.9876Z" fill="black"/>
<path d="M33.1913 50.2378H43.0897V51.9697H33.1913V50.2378Z" fill="black"/>
<path d="M29.4792 46.772H46.801V48.5043H29.4792V46.772Z" fill="black"/>
<path d="M10.4257 46.772H12.158V48.5043H10.4257V46.772Z" fill="black"/>
<path d="M5.22937 48.5037H6.96133V50.236H5.22937V48.5037Z" fill="black"/>
<path d="M10.5122 41.8956C15.0345 34.0195 17.8719 25.2898 18.8446 16.26L26.8993 24.2668C27.0604 24.4271 27.278 24.5176 27.5055 24.5187C27.5523 24.519 27.5995 24.5152 27.6456 24.5075C27.9202 24.4628 28.1564 24.2888 28.2805 24.04C29.9132 20.7812 29.2738 16.8428 26.6938 14.2681L25.9856 13.5595H32.0774C32.5557 13.5598 32.9439 13.1723 32.9439 12.694C32.9442 12.6004 32.9288 12.5074 32.8995 12.419C31.7493 8.96001 28.5125 6.62744 24.8672 6.63093H23.7414L28.0666 2.28058C28.4041 1.94167 28.4028 1.39346 28.0638 1.05595C27.9981 0.990609 27.9227 0.936103 27.8399 0.894874C24.5796 -0.739607 20.6391 -0.100559 18.0627 2.48079L17.2357 3.30781C16.9659 3.57929 16.7154 3.8686 16.4848 4.17397C16.257 3.8686 16.0082 3.57929 15.7406 3.30781L14.9136 2.48079C12.3392 -0.098812 8.4008 -0.73786 5.14267 0.894874C4.71466 1.10871 4.54101 1.62896 4.75484 2.05662C4.79607 2.13943 4.85057 2.2149 4.91591 2.28058L9.24599 6.63093H8.10905C4.46379 6.62744 1.22662 8.96001 0.0767571 12.419C-0.0748814 12.8726 0.170046 13.3631 0.623913 13.5148C0.712311 13.5445 0.805251 13.5595 0.898889 13.5595H6.98469L6.27646 14.2681C3.69651 16.8428 3.05712 20.7812 4.6895 24.04C4.81389 24.2888 5.05008 24.4628 5.32436 24.5075C5.37083 24.5152 5.41764 24.519 5.46481 24.5187C5.69367 24.5187 5.91309 24.4282 6.07521 24.2668L13.5757 16.8106C12.647 25.1099 9.52132 33.0111 4.52074 39.6993C3.35655 39.3936 2.17629 39.1528 0.985539 38.9788L0.444323 38.9243L0.271022 40.6486L0.775901 40.6979C1.64206 40.8219 2.50262 40.997 3.35865 41.1951C3.18534 41.4124 3.01204 41.6332 2.8328 41.8474L4.16121 42.9585C10.8169 35.0453 14.7846 25.2213 15.4915 14.9054L16.4883 13.9148L17.2346 14.6569C16.3241 25.6892 12.5373 36.2902 6.25201 45.4025L7.67056 46.3951C8.35153 45.4231 9.00106 44.4144 9.63068 43.3865C13.6819 45.3242 17.2591 48.1268 20.1102 51.5966L21.4497 50.4992C19.7639 48.4496 17.8324 46.6149 15.6983 45.037H51.9972V43.3047H13.1323C12.2833 42.7922 11.407 42.3278 10.5122 41.8956ZM27.1875 22.1092L18.0368 13.0113C20.3774 12.3125 22.9127 12.9466 24.6485 14.6653L25.4755 15.4927C27.2082 17.2222 27.8636 19.7564 27.1875 22.1092ZM30.7559 11.8275H23.5849C21.9148 11.0326 20.0305 10.8076 18.2203 11.1874C19.4805 9.41528 21.5203 8.36289 23.695 8.36324H24.8641C27.3123 8.3594 29.569 9.68641 30.7559 11.8275ZM18.4575 4.53245L19.2849 3.70543C21.0158 1.97242 23.551 1.3166 25.9049 1.99303L20.7709 7.15747C19.1046 7.77067 17.6742 8.89363 16.6822 10.3663C16.2794 8.24759 16.9439 6.06596 18.4603 4.53245H18.4575ZM13.6865 3.70543L14.5135 4.53245C14.8992 4.92622 15.234 5.36716 15.5096 5.84444C15.1173 6.75671 14.8933 7.73188 14.8479 8.72347C14.0705 8.04424 13.175 7.51386 12.2064 7.15747L7.07134 1.99303C9.42453 1.31695 11.9591 1.97276 13.6889 3.70543H13.6865ZM8.10626 8.36324H9.27569C11.4517 8.36115 13.4943 9.41318 14.756 11.1864C12.9468 10.808 11.0632 11.033 9.39414 11.8275H2.22031C3.40686 9.68746 5.66187 8.3608 8.10905 8.36324H8.10626ZM5.7887 22.1092C5.11262 19.7564 5.76844 17.2222 7.5011 15.4927L8.32812 14.6653C9.57408 13.4225 11.2638 12.7269 13.024 12.7325C13.6736 12.7328 14.3196 12.8254 14.9433 13.0078L5.7887 22.1092Z" fill="black"/>
</g>
<defs>
<clipPath id="clip0">
<rect width="52" height="52" fill="white"/>
</clipPath>
</defs>
</svg>

<svg width="52" height="52" fill="none" xmlns="http://www.w3.org/2000/svg"><g clip-path="url(#a)" fill="#000"><path d="M29.48 32.916a8.66 8.66 0 1 0 8.66-8.66 8.67 8.67 0 0 0-8.66 8.66zm8.66-6.928a6.928 6.928 0 1 1-6.928 6.928 6.936 6.936 0 0 1 6.928-6.928zM33.191 50.238h9.899v1.732H33.19v-1.732zM29.48 46.772H46.8v1.732H29.479v-1.732zM10.426 46.772h1.732v1.732h-1.732v-1.732zM5.23 48.504H6.96v1.732H5.23v-1.732z"/><path d="M10.512 41.896a65.592 65.592 0 0 0 8.333-25.636l8.054 8.007a.865.865 0 0 0 .747.24.865.865 0 0 0 .634-.467 8.455 8.455 0 0 0-1.586-9.772l-.708-.709h6.091a.866.866 0 0 0 .823-1.14 8.456 8.456 0 0 0-8.033-5.788h-1.126l4.326-4.35A.866.866 0 0 0 27.84.895a8.458 8.458 0 0 0-9.777 1.586l-.827.827c-.27.271-.52.56-.751.866a8.325 8.325 0 0 0-.744-.866l-.827-.827A8.454 8.454 0 0 0 5.143.895a.866.866 0 0 0-.227 1.386l4.33 4.35H8.109a8.456 8.456 0 0 0-8.032 5.788.866.866 0 0 0 .822 1.14h6.086l-.709.71A8.456 8.456 0 0 0 4.69 24.04a.866.866 0 0 0 1.386.227l7.5-7.456a46.941 46.941 0 0 1-9.054 22.888 32.32 32.32 0 0 0-3.535-.72l-.542-.055-.173 1.725.505.049c.866.124 1.727.299 2.583.497-.174.217-.347.438-.526.652l1.328 1.111a48.76 48.76 0 0 0 11.33-28.053l.997-.99.747.742A63.323 63.323 0 0 1 6.252 45.403l1.419.992c.68-.972 1.33-1.98 1.96-3.009a30.72 30.72 0 0 1 10.48 8.21L21.45 50.5a32.349 32.349 0 0 0-5.752-5.462h36.3v-1.732H13.131a31.94 31.94 0 0 0-2.62-1.41zm16.675-19.787-9.15-9.098a6.68 6.68 0 0 1 6.611 1.654l.828.828a6.724 6.724 0 0 1 1.712 6.616zm3.569-10.282h-7.171a8.446 8.446 0 0 0-5.365-.64 6.716 6.716 0 0 1 5.475-2.824h1.17a6.724 6.724 0 0 1 5.89 3.465zM18.457 4.533l.828-.827a6.73 6.73 0 0 1 6.62-1.712L20.77 7.157a8.448 8.448 0 0 0-4.089 3.21 6.556 6.556 0 0 1 1.778-5.835h-.003zm-4.77-.827.827.827c.385.394.72.835.996 1.312a8.241 8.241 0 0 0-.662 2.88 8.448 8.448 0 0 0-2.642-1.567L7.071 1.993a6.726 6.726 0 0 1 6.618 1.712h-.002zm-5.58 4.658h1.169a6.718 6.718 0 0 1 5.48 2.823 8.45 8.45 0 0 0-5.362.642H2.22A6.725 6.725 0 0 1 8.11 8.363h-.003zM5.788 22.11A6.724 6.724 0 0 1 7.5 15.493l.827-.828a6.62 6.62 0 0 1 4.696-1.932c.65 0 1.296.092 1.92.275l-9.155 9.101z"/></g><defs><clipPath id="a"><path fill="#fff" d="M0 0h52v52H0z"/></clipPath></defs></svg>
